X:1
T:Title
%%score 1 2
L:1/8
Q:1/4=87
M:4/4
K:F
V:1 treble nm="Grand Piano, Soprano"
V:2 bass nm="Choir Pad, A Better Home"
V:1
 FF [FA]>[FA] [FA][EG] [CF]2 | [CF][CF] [DG]>[DF] [DF][B,D] [A,C]2 | %2
w: By~Charles~Albert~Tindley,~1901 * * * * * *||
 [A,C][A,C][CF][CF] [CF][CF][CF][EG] | [FA][FA] [EG]6 | F>[FG] [FA][FA] [FA]>[EG] [CF]2 | %5
w: |||
 FF[DG][DF] [DF]>[B,D] [A,C]2 | [A,C][A,C][CF][CF] [CF][FA][FA][FA] | [EG]>F F6 | %8
w: |||
 [Fc]>[Fc] [Fd][Fc] [Fc]>[FA] [FA][CG] | [CF]<[CG] [FA]6 | [Fc]>[Fc] [Fd][Fc] [Fc][FA][FA][EG] | %11
w: |||
 F[FA] [EG]6 | F>[FG] [FA][FA] [FA]>[EG] [CF]2 | FF[DG][DF] [DF]>[B,D] [A,C]2 | %14
w: |||
 [A,C][A,C][CF][CF] [CF][FA][FA][FA] | [EG]>F F6- | F2 z2 z4 |] %17
w: |||
V:2
 [F,A,][F,A,][F,C][F,C] [F,C][F,B,] [F,A,]2 | [F,A,][F,A,] [B,,B,]>[B,,B,] [B,,B,][B,,F,] F,2 | %2
 F,F,[F,A,][F,A,] [F,A,][F,A,][F,A,][F,B,] | [F,C][F,C] [C,C]6 | %4
 [F,A,]>[F,B,] [F,C][F,C] [F,C]>[F,B,] [F,A,]2 | [F,A,][F,A,][B,,B,][B,,B,] [B,,B,]>[B,,F,] F,2 | %6
 F,F,[F,A,][F,A,] [F,A,][F,C][F,C][F,C] | [C,B,]>[F,A,] [F,A,]6 | %8
 [F,A,]>[F,A,] [F,B,][F,A,] [F,A,]>[F,C] [F,C][F,B,] | [F,A,]<[F,B,] [F,C]6 | %10
 [F,A,]>[F,A,] [F,B,][F,A,] [F,A,][F,C][F,C][F,B,] | [F,A,][F,C] [C,C]6 | %12
 [F,A,]>[F,B,] [F,C][F,C] [F,C]>[F,B,] [F,A,]2 | [F,A,][F,A,][B,,B,][B,,B,] [B,,B,]>[B,,F,] F,2 | %14
 F,F,[F,A,][F,A,] [F,A,][F,C][F,C][F,C] | [C,B,]>[F,A,] [F,A,]6- | [F,A,]2 z2 z4 |] %17

